dist/images/icons/js.svg

<svg width="44" height="45" viewBox="0 0 44 45" fill="none" xmlns="http://www.w3.org/2000/svg">
<path d="M0 0.375V44.125H43.75V0.375H0ZM23.7305 34.5547C23.7305 38.7539 21.2891 40.707 17.5781 40.707C14.3555 40.707 12.4023 39.0469 11.4258 36.9961L14.8438 34.9453C15.4297 36.1172 16.0156 37.0938 17.4805 37.0938C18.75 37.0938 19.6289 36.5078 19.6289 34.457V20.4922H23.7305V34.5547ZM33.4961 40.707C29.6875 40.707 27.2461 38.9492 25.9766 36.5078L29.3945 34.6523C30.2734 36.0195 31.3477 37.0938 33.3984 37.0938C35.0586 37.0938 36.2305 36.2148 36.2305 35.043C36.2305 33.6758 35.0586 33.1875 33.2031 32.3086L32.1289 31.918C29.1992 30.6484 27.2461 29.0859 27.2461 25.668C27.2461 22.6406 29.5898 20.2969 33.3008 20.2969C35.8398 20.2969 37.793 21.1758 39.0625 23.5195L35.9375 25.5703C35.1562 24.3984 34.4727 23.8125 33.2031 23.8125C32.0312 23.8125 31.25 24.5938 31.25 25.5703C31.25 26.8398 32.0312 27.3281 33.7891 28.1094L34.8633 28.5977C38.3789 30.0625 40.332 31.625 40.332 35.043C40.332 38.7539 37.4023 40.707 33.4961 40.707Z" fill="#fff"/>
</svg>

<svg width="44" height="45" fill="none" xmlns="http://www.w3.org/2000/svg"><path d="M0 .375v43.75h43.75V.375H0zm23.73 34.18c0 4.199-2.44 6.152-6.152 6.152-3.223 0-5.176-1.66-6.152-3.71l3.418-2.052c.586 1.172 1.172 2.149 2.636 2.149 1.27 0 2.149-.586 2.149-2.637V20.492h4.101v14.063zm9.766 6.152c-3.809 0-6.25-1.758-7.52-4.2l3.419-1.855c.878 1.367 1.953 2.442 4.003 2.442 1.66 0 2.832-.88 2.832-2.051 0-1.367-1.171-1.855-3.027-2.734l-1.074-.391c-2.93-1.27-4.883-2.832-4.883-6.25 0-3.027 2.344-5.371 6.055-5.371 2.539 0 4.492.879 5.761 3.223l-3.124 2.05c-.782-1.172-1.465-1.758-2.735-1.758-1.172 0-1.953.782-1.953 1.758 0 1.27.781 1.758 2.54 2.54l1.073.488c3.516 1.465 5.469 3.027 5.469 6.445 0 3.71-2.93 5.664-6.836 5.664z" fill="#fff"/></svg>
